X:275
T:Paddy's Leather Breeches #2 
C:Joe Buchanan's Scottish Tome - Page 318.1
I:318 1
R:Jig
Z:Carl Allison
L:1/8
M:6/8
K:D
B>BB f2 e | c>AA f2 e | B>BB f2 e | B>BB f2 e | c>AA f2 e | f>BB f2 e | f>^ga d>fa | c>AA {f}e2 c :|
a3 f2 e | f/BB f2 e | a3 f2 e | c>AA e2 c | a2 f e | f>BB f2 e | f>^ga e>fa | cAA e2 c :|
B>BB c>cc | B>BB f2 e | c>cc B>BB | A>AA e2 c | B>BB c>Bc | B>ce f2 e | f>^ga e>fa | c>AA e2 c :|
a^ga f2 e | f>BB f2 e | a>^ga f2 e | c>AA e2 c | a>^ga f2 e | f>BB f2 e | f>^ga e>fa | c>AA e2 c :|

